img/logo_app.svg

<svg width="52" height="52" viewBox="0 0 52 52" fill="none" xmlns="http://www.w3.org/2000/svg">
<path d="M0 10.8333L0 41.1667C0 47.1498 4.85025 52 10.8333 52H41.1667C47.1498 52 52 47.1498 52 41.1667V10.8333C52 4.85025 47.1498 0 41.1667 0H10.8333C4.85025 0 0 4.85025 0 10.8333Z" fill="#1CB78F"/>
<path d="M33.0654 17.2304C31.6719 17.2304 30.3355 17.7839 29.3502 18.7693C28.3648 19.7546 27.8113 21.0911 27.8113 22.4846C27.8113 26.6652 33.0654 28.9716 33.0654 28.9716C33.0654 28.9716 38.3196 26.6208 38.3196 22.4846C38.3193 21.0912 37.7657 19.7549 36.7804 18.7696C35.7951 17.7843 34.4588 17.2307 33.0654 17.2304ZM33.0654 24.8278C32.6204 24.8278 32.1854 24.6958 31.8153 24.4486C31.4453 24.2013 31.157 23.8499 30.9867 23.4388C30.8164 23.0276 30.7717 22.5752 30.8586 22.1388C30.9454 21.7023 31.1597 21.3014 31.4744 20.9867C31.7891 20.672 32.19 20.4577 32.6265 20.3709C33.063 20.2841 33.5153 20.3286 33.9265 20.4989C34.3376 20.6692 34.689 20.9576 34.9363 21.3277C35.1835 21.6977 35.3155 22.1327 35.3155 22.5778C35.3155 23.1745 35.0784 23.7468 34.6564 24.1688C34.2345 24.5907 33.6622 24.8278 33.0654 24.8278Z" fill="#FFDE3D"/>
<path d="M43.512 17.4774H41.4092C41.0676 17.4774 40.7906 17.7544 40.7906 18.096V29.3388C40.7906 29.6805 41.0676 29.9574 41.4092 29.9574H43.512C43.8536 29.9574 44.1306 29.6805 44.1306 29.3388V18.096C44.1306 17.7544 43.8536 17.4774 43.512 17.4774Z" fill="white"/>
<path d="M14.3162 17.4774H12.5276C12.3635 17.4774 12.2063 17.5426 12.0903 17.6586C11.9743 17.7746 11.9091 17.9319 11.9091 18.096V21.8681H9.54738V18.096C9.5471 17.9318 9.48173 17.7745 9.36555 17.6585C9.24937 17.5425 9.09185 17.4774 8.92769 17.4774H7.14017C6.97611 17.4774 6.81885 17.5426 6.70284 17.6586C6.58683 17.7746 6.52167 17.9319 6.52167 18.096V27.4971C6.52253 28.1912 6.79871 28.8566 7.2896 29.3473C7.78049 29.838 8.44599 30.1139 9.14008 30.1145H14.3162C14.4802 30.1145 14.6376 30.0493 14.7537 29.9333C14.8697 29.8173 14.9348 29.66 14.9348 29.4959V18.096C14.9348 17.9319 14.8697 17.7746 14.7537 17.6586C14.6376 17.5426 14.4802 17.4774 14.3162 17.4774ZM11.9091 27.5708H10.3436C10.1325 27.5705 9.93019 27.4866 9.78092 27.3373C9.63166 27.188 9.54767 26.9856 9.54738 26.7746V24.4118H11.9091V27.5708Z" fill="white"/>
<path d="M44.9064 34.0297C42.0897 33.6494 40.2014 32.6213 39.1127 29.8046C38.9577 29.406 38.7627 28.9553 38.1322 28.9553H36.8138C36.5734 28.9614 36.3422 29.0486 36.1577 29.2028C35.9732 29.357 35.8462 29.5691 35.7976 29.8046C34.7034 32.8282 32.3309 33.9159 29.0213 33.9159H26.4062C26.1001 33.9154 25.8068 33.7934 25.5903 33.577C25.3739 33.3606 25.2519 33.0672 25.2514 32.7611V18.096C25.2514 17.9319 25.1862 17.7746 25.0702 17.6586C24.9542 17.5426 24.7969 17.4774 24.6329 17.4774H22.803C22.639 17.4774 22.4817 17.5426 22.3657 17.6586C22.2497 17.7746 22.1845 17.9319 22.1845 18.096V21.7219H19.8272V18.0938C19.8272 17.9296 19.762 17.7722 19.646 17.656C19.53 17.5398 19.3727 17.4745 19.2085 17.4742H17.3788C17.2147 17.4745 17.0573 17.5398 16.9414 17.656C16.8254 17.7722 16.7602 17.9296 16.7602 18.0938V36.2386C16.7602 36.4027 16.8254 36.5602 16.9414 36.6764C17.0573 36.7926 17.2147 36.8579 17.3788 36.8582H19.2085C19.3727 36.8579 19.53 36.7926 19.646 36.6764C19.762 36.5602 19.8272 36.4027 19.8272 36.2386V24.3544H22.1845V34.1466C22.1868 34.8619 22.4719 35.5473 22.9777 36.0531C23.4835 36.5589 24.1688 36.844 24.8841 36.8463C24.8841 36.8463 30.1513 36.816 30.5564 36.816C31.8459 36.9184 33.1395 36.6771 34.3054 36.1166C35.4712 35.5561 36.4677 34.6966 37.193 33.6256C37.3761 33.3797 37.5179 33.1446 37.5179 33.1446C37.5179 33.1446 37.6621 33.3743 37.8538 33.6256C38.6337 34.6336 39.6358 35.4478 40.7821 36.0048C41.9284 36.5618 43.1878 36.8464 44.4622 36.8366C44.6221 36.8458 44.7802 36.7984 44.9087 36.7027C45.0373 36.607 45.1282 36.4692 45.1653 36.3133L45.4697 34.8096C45.4884 34.721 45.4882 34.6294 45.4694 34.5408C45.4507 34.4522 45.4137 34.3685 45.3606 34.295C45.3076 34.2216 45.2397 34.16 45.1614 34.1143C45.0832 34.0686 44.9964 34.0398 44.9064 34.0297Z" fill="white"/>
</svg>

<svg xmlns="http://www.w3.org/2000/svg" width="52" height="52" fill="none" xmlns:v="https://vecta.io/nano"><path d="M0 10.833v30.333C0 47.15 4.85 52 10.833 52h30.333C47.15 52 52 47.15 52 41.167V10.833C52 4.85 47.15 0 41.167 0H10.833C4.85 0 0 4.85 0 10.833z" fill="#1cb78f"/><path d="M33.065 17.23c-1.393 0-2.73.553-3.715 1.539s-1.539 2.322-1.539 3.715c0 4.181 5.254 6.487 5.254 6.487s5.254-2.351 5.254-6.487c0-1.393-.554-2.73-1.539-3.715s-2.322-1.539-3.715-1.539zm0 7.597a2.25 2.25 0 0 1-2.079-1.389 2.25 2.25 0 0 1 .488-2.452 2.25 2.25 0 0 1 2.452-.488 2.25 2.25 0 0 1 1.389 2.079 2.25 2.25 0 0 1-2.25 2.25z" fill="#ffde3d"/><path d="M43.512 17.477h-2.103a.62.62 0 0 0-.619.619v11.243a.62.62 0 0 0 .619.619h2.103a.62.62 0 0 0 .619-.619V18.096a.62.62 0 0 0-.619-.619zm-29.196 0h-1.789a.62.62 0 0 0-.618.619v3.772H9.547v-3.772a.62.62 0 0 0-.62-.619H7.14a.62.62 0 0 0-.618.619v9.401a2.62 2.62 0 0 0 2.618 2.617h5.176a.62.62 0 0 0 .619-.619v-11.4a.62.62 0 0 0-.619-.619zM11.909 27.57h-1.565a.8.8 0 0 1-.797-.796v-2.363h2.362v3.159zm32.997 6.46c-2.817-.38-4.705-1.408-5.794-4.225-.155-.399-.35-.849-.98-.849h-1.318c-.24.006-.472.093-.656.247a1.07 1.07 0 0 0-.36.602c-1.094 3.024-3.467 4.111-6.776 4.111h-2.615a1.16 1.16 0 0 1-.816-.339c-.217-.216-.338-.51-.339-.816V18.096a.62.62 0 0 0-.619-.619h-1.83a.62.62 0 0 0-.619.619v3.626h-2.357v-3.628a.62.62 0 0 0-.619-.62h-1.83a.62.62 0 0 0-.619.62v18.145a.62.62 0 0 0 .619.62h1.83a.62.62 0 0 0 .619-.62V24.354h2.357v9.792a2.71 2.71 0 0 0 2.7 2.7l5.672-.03c1.29.102 2.583-.139 3.749-.699s2.162-1.42 2.888-2.491l.325-.481.336.481c.78 1.008 1.782 1.822 2.928 2.379a8.27 8.27 0 0 0 3.68.832.68.68 0 0 0 .703-.523l.304-1.504a.65.65 0 0 0-.563-.78z" fill="#fff"/></svg>
